X:1
T:G minor James P. Carrell, 1821
T:Isaac Watts, 1717 (Psalm 69, Part 2)                86. 86. (C. M.)
T:Calvary New
T:Transcribed from Songs of Zion, 1821
%%score [ 1 2 3 4 ]
L:1/8
Q:1/4=90
M:6/8
K:Bb
V:1 treble nm="Tr." snm="Tr."
V:2 treble nm="C." snm="C."
V:3 treble-8 nm="T." snm="T."
V:4 bass nm="B." snm="B."
V:1
"^Now       let  our  lips  with  ho – ly  fear     And mournful  pleasure  sing   The\n         sufferings of our great High Priest,    The   sor–rows   of   our                          King.""^1. {" d3 |: %1
 d2 A B2 G | c2 f d2 f | g2 g fed |1 d3 d3 :|2"^}" d6 || %6
 z2 z"^He   sinks  in  floods  of  deep distress;" d3 | d2 d B2 G | cBA c3 | %9
"^How    high   the    wa – ters  rise!     While  to  his   hea–venly  Fa – ther's   ear      He   sends  per – pe  – tual   cries." B3 def | %10
 fdc d3 | A3 B2 G | d2 g f2 e | d3 f3 | g2 g fed | d6 |] %16
V:2
"^\"Hear      me,  O  Lord, and save   thy    Son,  Nor  hide  thy shi–ning face;  Why\n                should thy favorite look like one   For – sa – ken  of    thy                            grace?""^2. {" G3 |: %1
 G2 F G2 G | AB c2 BA | G2 G F2 F |1 G3 G3 :|2"^}" G6 || %6
 z2 z"^With  rage  they  per–se–cute  the  man" F3 | D2 G F2 B | G2 A F3 | %9
"^That groans beneath  thy  wound,   While  for   a      sa  –  cri  – fice      I     pour     My     life     up – on   the  ground.\"" G3 G2 D | %10
 FGA B3 | c3 B2 B | G2 G F2 F | G3 F3 | G2 D FGA | G6 |] %16
V:3
"^\"They    tread  my  honor    to    the    dust,   And  laugh  when I complain;   Their\n                sharp  in–sul–ting  slanders  add    Fresh  an–guish   to  my                          pain.""^3. {" D3 |: %1
 G2 A B2 d | AGF D2 A | B2 G FGA |1 G3 D3 :|2"^}" G6 || %6
 z2 z"^\"All    my  reproach  is  known  to  thee," A3 | B2 d f2 d | cBA c3 | %9
"^The   scan – dal   and   the  shame;   Reproach has  broke  my  blee – ding  heart,   And     lies    de –  filed  my  name.\"" d3 dcd | %10
 fga d3 | f3 g2 d | B2 G cBc | d3 B3 | d2 G FGA | G6 |] %16
V:4
 G,3 |: D,2 D, D,2 D, | C,2 D, F,2 F, | G,2 B, F,2 D, |1 G,3 G,3 :|2 G,6 || z2 z D,3 | %7
 G,2 G, B,2 B, | G,F,D, F,3 | %9
 D,3"^5. \"Shine into my distressed soul,\nLet thy compassions save;\nAnd though my flesh sink down to death,\nRedeem it from the grave.\nI shall arise to praise thy name,\nShall reign in worlds unknown;\nAnd thy salvation, O my God,\nShall seat me on thy throne.\"" G,2 A, | %10
 B,2 A,"^4. \"I looked for pity, but in vain;\nMy kindred are my grief:\nI ask my friends for comfort round,\nBut meet with no relief.\nWith vinegar they mock my thirst,\nThey give me gall for food;\nAnd sporting with my dying groans,\nThey triumph in my blood.\"" G,3 | %11
 F,3 D,2 D, | G,2 G, F,2 G, | D,3 B,,3 | D,2 G, F,2 D, | G,6 |] %16

